X: 19912
T: Jig In The Castle
R: jig
M: 6/8
K: Edorian
|:E2E BEB|AFE FAB|E2E BEB|AFE DEF|
E2E BEB|AFE FAB|e2d BAB|1 ded BAF:|2 ded BAB||
|:~e3 fed|Bed BAB|~e3 fed|BdA FAB|
~e3 fed|Bed BAB|d2e dBA|1 edB ABd:|2 edB dBA||

